X:68
T:68 Lady Mary Douglas
C:Welch MS
N:Minor rejiggling of repeats etc by MG to correct notation
I:abc2nwc
M:6/8
L:1/8
K:G
D/2C/2[|B,/2C/2DD D2G|ECE D2C|B,/2C/2DD DGc|B3A2D/2C/2||
B,/2C/2DD D2G|ECE D2e|dBG cAF|1G3G2D/2C/2:|2A3G2|]
d|ded g2d|B3G2B|ABA d2A|F3DEF|
GEG EFG|ABA FGA|Bcd dcB|AGF EDC"DC"|]

